!!!OTL: Am Ziel (306), S. 632f
!!!id: T0498
**kern
*clefG2
*k[]
*G:
{4d
=1
4g
8g
4g
8a
8g
8b
=2
4a}
2r
=3
{8d
8d
=4
4.a
8dd
4cc
8a
8cc
=5
4b
8a
8cc
4b}
=6
{8b
8cc
=7
4dd
4b
4dd
8b
8dd
=8
8cc
8b
4a}
4r
=9
{4d
=10
4.a
8b
4cc
8a
8cc
=11
4b
4a
4g}
=12
{4d
=13
4.g
8g
8b
8a
8g
8b
=14
4a}
2r
=15
{8dd
8cc
=16
8b
8a
8g
8a
4b
4a
=17
4g}
2r
==
*-
!!!minrhy: 8
!!!meters: 4/4 ]  ZZ[6
!!!cut: Am Ziel (306), S. 632f
!!!reg: Luxemburg
!!!trd: Singendes Volk, Esch-Alzette 1937 posth.
!!!rhy1: X_  X_XX_XXX  X_0__
!!!rhy2: XX  X_.XX_XX  X_XXX_
!!!key: T0498  08  G 4/4 ]  ZZ[6
!!!mod: PENTATONIK DUR ?]  AMBITUS[8
!!!kad: 232121
!!!akz: 112_2433_554_2431_132_331_
!!!fot: 'a__b__c__bw_bs'd__
!!!for: 'a__b__c__d__e__f__
!!!fok: '/__^a_^d_^a_/__\__
!! PHRAS[AUFTAKTIG]
!!!fkt: geistliches Lied
!!!bem: Berg, hhh Mathias Theisen, 4.1.1934
!! M_NDLICH
!! PR[25] 2K[0] 2G[8] 3K[13] 3G[8] 4A[0] 4Ü[0] 5A[0] 6K[0] 6G[0]
!! 7K[0] 7G[0] 8A[0] MEHR[0] SI[29] ABS[24] SR[8] SP[21]
!! ST[0] 2k[4] 2g[29] 3k[8] 3g[0] 4d[0] 4ü[0] 5d[4] 6k[0] 6g[0]
!! 7k[0] 7g[0] 8d[0] mehr[0] si[46] dm[-17] sr[33] sp[13]
!! 1F[72] 2F[24] 3F[0] 4F[0] LF[0] 2P[4] 3P[0] 4P[0] TRI[0] DF[3] AB[25]
!! TF[0] U3K[0] U3[0] U4[0] U4Ü[0] U5[0] U6K[0] U6[0] U7K[0] U7[0]
!! N1[12] N2K[0] N2[12] N3K[0] N3[20] N4[16] N4Ü[0] N5[32] N6K[0] N6[8]
!!!n7k: 0] N7[0] O1[0] O2K[0] O2[0] O3K[0] O3[0] HÖ[0
